icons/1_Primary/Keycloak.svg

<svg xmlns="http://www.w3.org/2000/svg" viewBox="0 0 1024 1024">
   <circle cx="512" cy="512" r="512" style="fill:#008aaa"/>
   <path d="M786.2 395.5h-80.6c-1.5 0-3-.8-3.7-2.1l-64.7-112.2c-.8-1.3-2.2-2.1-3.8-2.1h-264c-1.5 0-3 .8-3.7 2.1l-67.3 116.4-64.8 112.2c-.7 1.3-.7 2.9 0 4.3l64.8 112.2 67.2 116.5c.7 1.3 2.2 2.2 3.7 2.1h264.1c1.5 0 3-.8 3.8-2.1L702 630.6c.7-1.3 2.2-2.2 3.7-2.1h80.6c2.7 0 4.8-2.2 4.8-4.8V400.4c-.1-2.7-2.3-4.9-4.9-4.9zM477.5 630.6l-20.3 35c-.3.5-.8 1-1.3 1.3-.6.3-1.2.5-1.9.5h-40.3c-1.4 0-2.7-.7-3.3-2l-60.1-104.3-5.9-10.3-21.6-36.9c-.3-.5-.5-1.1-.4-1.8 0-.6.2-1.3.5-1.8l21.7-37.6 65.9-114c.7-1.2 2-2 3.3-2H454c.7 0 1.4.2 2.1.5.5.3 1 .7 1.3 1.3l20.3 35.2c.6 1.2.5 2.7-.2 3.8l-65.1 112.8c-.3.5-.4 1.1-.4 1.6 0 .6.2 1.1.4 1.6l65.1 112.7c.9 1.5.8 3.1 0 4.4zm202.1-116.7L658 550.8l-5.9 10.3L592 665.4c-.7 1.2-1.9 2-3.3 2h-40.3c-.7 0-1.3-.2-1.9-.5-.5-.3-1-.7-1.3-1.3l-20.3-35c-.9-1.3-.9-2.9-.1-4.2l65.1-112.7c.3-.5.4-1.1.4-1.6 0-.6-.2-1.1-.4-1.6l-65.1-112.8c-.7-1.2-.8-2.6-.2-3.8l20.3-35.2c.3-.5.8-1 1.3-1.3.6-.4 1.3-.5 2.1-.5h40.4c1.4 0 2.7.7 3.3 2l65.9 114 21.7 37.6c.3.6.5 1.2.5 1.8 0 .4-.2 1-.5 1.6z" style="fill:#fff"/>
</svg>

<svg width="1024" height="1024" viewBox="0 0 1024 1024" fill="none" xmlns="http://www.w3.org/2000/svg">
<g clip-path="url(#clip0_2_2598)">
<path d="M512 1024C794.77 1024 1024 794.77 1024 512C1024 229.23 794.77 0 512 0C229.23 0 0 229.23 0 512C0 794.77 229.23 1024 512 1024Z" fill="#9ABEFF"/>
<path d="M786.2 395.5H705.6C704.1 395.5 702.6 394.7 701.9 393.4L637.2 281.2C636.4 279.9 635 279.1 633.4 279.1H369.4C367.9 279.1 366.4 279.9 365.7 281.2L298.4 397.6L233.6 509.8C232.9 511.1 232.9 512.7 233.6 514.1L298.4 626.3L365.6 742.8C366.3 744.1 367.8 745 369.3 744.9H633.4C634.9 744.9 636.4 744.1 637.2 742.8L702 630.6C702.7 629.3 704.2 628.4 705.7 628.5H786.3C789 628.5 791.1 626.3 791.1 623.7V400.4C791 397.7 788.8 395.5 786.2 395.5ZM477.5 630.6L457.2 665.6C456.9 666.1 456.4 666.6 455.9 666.9C455.3 667.2 454.7 667.4 454 667.4H413.7C412.3 667.4 411 666.7 410.4 665.4L350.3 561.1L344.4 550.8L322.8 513.9C322.5 513.4 322.3 512.8 322.4 512.1C322.4 511.5 322.6 510.8 322.9 510.3L344.6 472.7L410.5 358.7C411.2 357.5 412.5 356.7 413.8 356.7H454C454.7 356.7 455.4 356.9 456.1 357.2C456.6 357.5 457.1 357.9 457.4 358.5L477.7 393.7C478.3 394.9 478.2 396.4 477.5 397.5L412.4 510.3C412.1 510.8 412 511.4 412 511.9C412 512.5 412.2 513 412.4 513.5L477.5 626.2C478.4 627.7 478.3 629.3 477.5 630.6ZM679.6 513.9L658 550.8L652.1 561.1L592 665.4C591.3 666.6 590.1 667.4 588.7 667.4H548.4C547.7 667.4 547.1 667.2 546.5 666.9C546 666.6 545.5 666.2 545.2 665.6L524.9 630.6C524 629.3 524 627.7 524.8 626.4L589.9 513.7C590.2 513.2 590.3 512.6 590.3 512.1C590.3 511.5 590.1 511 589.9 510.5L524.8 397.7C524.1 396.5 524 395.1 524.6 393.9L544.9 358.7C545.2 358.2 545.7 357.7 546.2 357.4C546.8 357 547.5 356.9 548.3 356.9H588.7C590.1 356.9 591.4 357.6 592 358.9L657.9 472.9L679.6 510.5C679.9 511.1 680.1 511.7 680.1 512.3C680.1 512.7 679.9 513.3 679.6 513.9Z" fill="white"/>
</g>
<defs>
<clipPath id="clip0_2_2598">
<rect width="1024" height="1024" fill="white"/>
</clipPath>
</defs>
</svg>
